places/scalable/folder-magenta-themes.svg

<?xml version="1.0" standalone="no"?><!-- Generator: Gravit.io -->
<svg xmlns="http://www.w3.org/2000/svg" 
  xmlns:xlink="http://www.w3.org/1999/xlink" style="isolation:isolate" viewBox="0 0 256 256" width="256" height="256">
  <g id="folder">
    <path d=" M 53.705469 21 C 17.390414 21 13.666667 23.055089 13.666667 59.371035 L 13.666667 111.538229 L 243.666667 111.538229 L 243.666667 79.563042 C 243.666667 43.247098 239.942918 37.460768 203.627861 37.460768 L 114.291921 37.460768 L 97.864201 21 L 53.705469 21 Z " id="orange" fill="#C61B34"/>
    <path d=" M 53.705469 70.384311 C 17.388415 70.384311 13.666667 74.113541 13.666667 110.429488 L 13.666667 194.952819 C 13.666667 231.268759 17.388415 235 53.705469 235 L 203.627861 235 C 239.944918 235 243.666667 231.268759 243.666667 194.952819 L 243.666667 93.968715 C 243.666667 57.652775 239.944918 53.921534 203.627861 53.921534 L 120.196686 53.921534 L 103.758968 70.384311 L 53.705469 70.384311 Z " id="change-color-easy" fill="#F74761"/>
    <linearGradient id="_lgradient_8" x1="0" y1="0.5" x2="2.83276944882399e-16" y2="-0.5" gradientTransform="matrix(230,0,0,181.078466,13.666667,53.921534)" gradientUnits="userSpaceOnUse">
      <stop offset="0%" stop-opacity="0.07" style="stop-color:rgb(255,255,255)"/>
      <stop offset="67.28219512106674%" stop-opacity="0" style="stop-color:rgb(252,239,232)"/>
    </linearGradient>
    <path d=" M 53.705469 70.384311 C 17.388415 70.384311 13.666667 74.113541 13.666667 110.429488 L 13.666667 194.952819 C 13.666667 231.268759 17.388415 235 53.705469 235 L 203.627861 235 C 239.944918 235 243.666667 231.268759 243.666667 194.952819 L 243.666667 93.968715 C 243.666667 57.652775 239.944918 53.921534 203.627861 53.921534 L 120.196686 53.921534 L 103.758968 70.384311 L 53.705469 70.384311 Z " id="gradient white" fill="url(#_lgradient_8)"/>
    <g opacity="0.4">
      <radialGradient id="_rgradient_16" fx="0.5000000213726793" fy="0.13577386516315215" cx="0.5" cy="0.5" r="0.27154159375000003" gradientTransform="matrix(230,0,0,60.620138,13.666667,21)" gradientUnits="userSpaceOnUse">
        <stop offset="0%" stop-opacity="1" style="stop-color:rgb(255,255,255)"/>
        <stop offset="100%" stop-opacity="0.20392157" style="stop-color:rgb(255,255,255)"/>
      </radialGradient>
      <path d=" M 53.705469 21 C 17.390414 21 13.666667 23.055089 13.666667 59.371035 L 13.666667 61.430128 C 13.666667 25.114188 17.390414 23.057095 53.705469 23.057095 L 97.864201 23.057095 L 114.291921 39.517861 L 203.627861 39.517861 C 239.942918 39.517861 243.666667 45.304195 243.666667 81.620138 L 243.666667 79.563042 C 243.666667 43.247098 239.942918 37.460768 203.627861 37.460768 L 114.291921 37.460768 L 97.864201 21 L 53.705469 21 Z " id="white" fill="url(#_rgradient_16)"/>
    </g>
    <g opacity="0.4">
      <radialGradient id="_rgradient_17" fx="0.48214287810452355" fy="0.2108154047287485" cx="0.5" cy="0.5" r="0.27154159375" gradientTransform="matrix(230,0,0,58.565044,13.666667,53.921534)" gradientUnits="userSpaceOnUse">
        <stop offset="0%" stop-opacity="1" style="stop-color:rgb(255,255,255)"/>
        <stop offset="100%" stop-opacity="0.20392157" style="stop-color:rgb(255,255,255)"/>
      </radialGradient>
      <path d=" M 120.196686 53.921534 L 103.758968 70.384311 L 53.705469 70.384311 C 17.390414 70.384311 13.666667 74.111537 13.666667 110.427484 L 13.666667 112.486577 C 13.666667 76.170637 17.390414 72.4414 53.705469 72.4414 L 103.758968 72.4414 L 120.196686 55.980634 L 203.627861 55.980634 C 239.942918 55.980634 243.666667 59.707868 243.666667 96.023808 L 243.666667 93.966711 C 243.666667 57.650771 239.942918 53.921534 203.627861 53.921534 L 120.196686 53.921534 Z " id="white" fill="url(#_rgradient_17)"/>
    </g>
    <g opacity="0.1">
      <path d=" M 243.666667 167.095832 L 177.951803 232.940899 L 203.627861 232.940899 C 239.942918 232.940899 243.666667 229.213666 243.666667 192.897726 L 243.666667 167.095832 Z " id="white" fill="rgb(255,255,255)"/>
    </g>
    <g opacity="0.2">
      <path d=" M 13.666667 192.897726 L 13.666667 194.954823 C 13.666667 231.270763 17.390414 235 53.705469 235 L 203.627861 235 C 239.942918 235 243.666667 231.270763 243.666667 194.954823 L 243.666667 192.897726 C 243.666667 229.213666 239.942918 232.940899 203.627861 232.940899 L 53.705469 232.940899 C 17.390414 232.940899 13.666667 229.213666 13.666667 192.897726 Z " id="dark" fill="rgb(0,0,0)"/>
    </g>
  </g>
  <g opacity="0.62">
    <path d=" M 80.000158 190.256704 C 79.405822 190.086287 78.378249 189.288863 77.164114 188.055687 C 75.635717 186.503353 74.991305 185.569718 73.897561 183.323078 C 65.956341 167.011003 66.048678 137.311496 74.091222 121.039586 C 76.382522 116.40378 79.019396 113.776695 81.68222 113.476745 C 84.498711 113.159479 90.584862 115.591944 95.947167 119.178019 C 103.341808 124.123198 111.245031 131.733175 114.995263 137.519358 C 115.958147 139.004982 116.168371 139.592135 116.425445 141.514104 C 116.591198 142.753338 116.726806 144.707274 116.726806 145.856236 L 116.726806 147.945268 L 114.916973 147.178934 C 112.400634 146.113399 108.245391 144.873312 105.041741 144.23171 C 101.726513 143.567717 96.043688 143.050427 94.90816 143.30928 C 94.093871 143.494805 94.111797 143.510523 95.544982 143.871601 C 100.170422 145.036392 116.142834 150.243632 116.652483 150.752926 C 116.895495 150.995852 116.127276 157.220893 115.831091 157.409084 C 115.1617 157.834664 110.4328 159.281856 105.076244 160.700845 C 101.986474 161.519396 99.392376 162.256411 99.311578 162.338667 C 99.230816 162.421156 99.707604 162.41813 100.371215 162.332263 C 101.034826 162.246762 103.327288 161.990526 105.465575 161.763275 C 107.603869 161.535755 110.705102 161.112432 112.357208 160.822149 C 114.009295 160.531464 115.410851 160.294307 115.471771 160.294307 C 115.668334 160.294307 114.851458 163.572234 114.00277 166.189047 C 113.038647 169.161834 112.798095 169.451787 107.312487 174.252685 C 97.387023 182.93934 89.771105 188.221822 84.772735 189.886483 C 82.600109 190.61003 81.524651 190.693397 80.000176 190.256314 L 80.000158 190.256704 Z  M 171.424157 190.147927 C 167.812377 189.196031 161.696081 185.528523 156.297216 181.077462 C 152.824511 178.214367 148.054882 173.791802 145.939379 171.473311 L 144.282214 169.657154 L 144.735912 167.856074 C 144.985449 166.865483 145.259033 164.990735 145.343871 163.690014 C 145.490222 161.446325 145.527014 161.333377 146.0604 161.489729 C 149.632507 162.536703 154.307824 163.415529 159.626672 164.039851 C 161.027636 164.204523 162.535827 164.393823 162.978234 164.461356 C 163.76416 164.581014 163.767224 164.577391 163.112304 164.293659 C 162.743615 164.134123 160.089208 163.349179 157.213574 162.54967 C 154.337939 161.750161 150.531433 160.604584 148.754699 160.003952 L 145.524255 158.911891 L 145.037536 155.115027 C 144.769848 153.026775 144.534362 151.016706 144.514233 150.648315 C 144.481115 150.045657 144.881066 149.771178 148.499523 147.911911 C 150.711547 146.775282 154.781201 144.793361 157.5432 143.50762 C 160.305187 142.221903 162.530627 141.135557 162.48861 141.093587 C 162.27268 140.877845 155.537341 142.866677 150.011352 144.778045 C 146.566271 145.969606 143.6552 146.843448 143.542297 146.719893 C 143.429418 146.596313 143.126159 145.832034 142.868481 145.021521 C 142.610778 144.210954 141.992675 142.711038 141.494897 141.688267 C 140.997131 140.665544 140.589855 139.722089 140.589855 139.591647 C 140.589855 139.461114 141.146496 138.489406 141.826818 137.432002 C 146.223608 130.598418 155.582507 121.75005 163.123913 117.29672 C 167.570129 114.671148 172.425683 113.071855 174.66134 113.496629 C 177.178601 113.974853 179.664538 116.572569 181.880712 121.040549 C 186.043042 129.432152 188.349658 142.248557 187.956787 154.80142 C 187.601892 166.140423 185.515783 176.262181 182.078466 183.322809 C 180.98562 185.567596 180.340319 186.502938 178.81831 188.048111 C 176.292639 190.612348 174.797314 191.036988 171.424169 190.147952 L 171.424157 190.147927 Z  M 125.451269 170.981907 C 122.184612 170.506337 119.053045 169.264377 117.823949 167.95691 C 117.286834 167.385554 117.286773 167.376405 117.804272 165.379584 C 119.233556 159.864532 120.051916 150.615744 119.676733 144.217694 C 119.473364 140.749429 119.496526 140.295707 119.892803 139.98962 C 121.364434 138.852875 129.249316 137.322835 132.101891 137.620547 C 134.004479 137.81907 135.651489 138.526478 136.622009 139.561918 C 138.285681 141.336819 140.33612 147.204496 141.305615 152.964781 C 141.999059 157.084889 141.990905 165.358139 141.291137 167.709506 C 140.81997 169.292507 140.741235 169.388597 139.46488 169.937275 C 138.731274 170.252736 137.225793 170.683829 136.119396 170.895332 C 133.9182 171.316398 128.073254 171.36368 125.451324 170.982053 L 125.451269 170.981907 Z " id="themes" fill="#FFFFFF"/>
  </g>
</svg>

<svg xmlns="http://www.w3.org/2000/svg" style="isolation:isolate" width="256" height="256"><path d="M53.705 21c-36.315 0-40.038 2.055-40.038 38.371v52.167h230V79.563c0-36.316-3.724-42.102-40.04-42.102h-89.335L97.864 21H53.705z" fill="#C61B34"/><path d="M53.705 70.384c-36.317 0-40.038 3.73-40.038 40.045v84.524c0 36.316 3.721 40.047 40.038 40.047h149.923c36.317 0 40.039-3.731 40.039-40.047V93.969c0-36.316-3.722-40.047-40.04-40.047h-83.43l-16.438 16.462H53.705z" fill="#F74761"/><linearGradient id="a" y1=".5" x2="0" y2="-.5" gradientTransform="matrix(230 0 0 181.07847 13.667 53.922)" gradientUnits="userSpaceOnUse"><stop offset="0%" stop-opacity=".07" stop-color="#fff"/><stop offset="67.282%" stop-opacity="0" stop-color="#fcefe8"/></linearGradient><path d="M53.705 70.384c-36.317 0-40.038 3.73-40.038 40.045v84.524c0 36.316 3.721 40.047 40.038 40.047h149.923c36.317 0 40.039-3.731 40.039-40.047V93.969c0-36.316-3.722-40.047-40.04-40.047h-83.43l-16.438 16.462H53.705z" fill="url(#a)"/><g opacity=".4"><radialGradient id="b" fx=".5" fy=".136" cx=".5" cy=".5" r=".272" gradientTransform="matrix(230 0 0 60.62014 13.667 21)" gradientUnits="userSpaceOnUse"><stop offset="0%" stop-color="#fff"/><stop offset="100%" stop-opacity=".204" stop-color="#fff"/></radialGradient><path d="M53.705 21c-36.315 0-40.038 2.055-40.038 38.371v2.06c0-36.317 3.723-38.374 40.038-38.374h44.16l16.427 16.46h89.336c36.315 0 40.039 5.787 40.039 42.103v-2.057c0-36.316-3.724-42.102-40.04-42.102h-89.335L97.864 21H53.705z" fill="url(#b)"/></g><g opacity=".4"><radialGradient id="c" fx=".482" fy=".211" cx=".5" cy=".5" r=".272" gradientTransform="matrix(230 0 0 58.56504 13.667 53.922)" gradientUnits="userSpaceOnUse"><stop offset="0%" stop-color="#fff"/><stop offset="100%" stop-opacity=".204" stop-color="#fff"/></radialGradient><path d="M120.197 53.922l-16.438 16.462H53.705c-36.315 0-40.038 3.728-40.038 40.043v2.06c0-36.316 3.723-40.046 40.038-40.046h50.054l16.438-16.46h83.43c36.316 0 40.04 3.727 40.04 40.043v-2.057c0-36.316-3.724-40.045-40.04-40.045h-83.43z" fill="url(#c)"/></g><path d="M243.667 167.096l-65.715 65.845h25.676c36.315 0 40.039-3.727 40.039-40.043v-25.802z" fill="#FFF" opacity=".1"/><path d="M13.667 192.898v2.057C13.667 231.27 17.39 235 53.705 235h149.923c36.315 0 40.039-3.73 40.039-40.045v-2.057c0 36.316-3.724 40.043-40.04 40.043H53.706c-36.315 0-40.038-3.727-40.038-40.043z" opacity=".2"/><g opacity=".62"><path d="M80 190.257c-.594-.17-1.622-.968-2.836-2.201-1.528-1.553-2.173-2.486-3.266-4.733-7.942-16.312-7.85-46.012.193-62.283 2.292-4.636 4.928-7.263 7.591-7.563 2.817-.318 8.903 2.115 14.265 5.701 7.395 4.945 15.298 12.555 19.048 18.341.963 1.486 1.173 2.073 1.43 3.995.166 1.24.302 3.193.302 4.342v2.09l-1.81-.767c-2.516-1.066-6.672-2.306-9.875-2.947-3.315-.664-8.998-1.182-10.134-.923-.814.186-.796.202.637.563 4.625 1.164 20.598 6.372 21.107 6.88.243.244-.525 6.469-.82 6.657-.67.426-5.4 1.873-10.756 3.292-3.09.818-5.684 1.555-5.764 1.638-.081.082.396.08 1.06-.007.663-.085 2.955-.341 5.094-.569 2.138-.227 5.24-.65 6.891-.94 1.652-.292 3.054-.529 3.115-.529.196 0-.62 3.278-1.47 5.895-.963 2.973-1.204 3.263-6.69 8.064-9.925 8.686-17.54 13.969-22.54 15.633-2.172.724-3.247.807-4.772.37zm91.424-.11c-3.612-.951-9.728-4.618-15.127-9.07-3.472-2.863-8.242-7.285-10.358-9.604l-1.657-1.816.454-1.8c.25-.992.523-2.866.608-4.167.146-2.244.183-2.357.716-2.2 3.573 1.047 8.248 1.926 13.567 2.55 1.4.165 2.909.354 3.351.421.786.12.79.116.134-.167-.368-.16-3.023-.945-5.898-1.744-2.876-.8-6.683-1.945-8.46-2.546l-3.23-1.092-.486-3.797c-.268-2.088-.504-4.098-.524-4.467-.033-.602.367-.877 3.986-2.736 2.212-1.137 6.281-3.119 9.043-4.404 2.762-1.286 4.988-2.372 4.946-2.414-.216-.216-6.952 1.773-12.478 3.684-3.445 1.192-6.356 2.065-6.469 1.942-.113-.124-.416-.888-.674-1.698-.257-.811-.875-2.311-1.373-3.334-.498-1.022-.905-1.966-.905-2.096 0-.13.556-1.103 1.237-2.16 4.397-6.834 13.756-15.682 21.297-20.135 4.446-2.626 9.302-4.225 11.537-3.8 2.518.478 5.004 3.076 7.22 7.544 4.162 8.391 6.469 21.208 6.076 33.76-.355 11.34-2.441 21.461-5.879 28.522-1.092 2.245-1.738 3.18-3.26 4.725-2.525 2.564-4.02 2.989-7.394 2.1zm-45.973-19.165c-3.266-.476-6.398-1.718-7.627-3.025-.537-.571-.537-.58-.02-2.577 1.43-5.515 2.248-14.764 1.873-21.162-.204-3.469-.18-3.922.216-4.228 1.471-1.137 9.356-2.667 12.209-2.37 1.902.2 3.55.906 4.52 1.942 1.664 1.775 3.714 7.642 4.684 13.403.693 4.12.685 12.393-.015 14.745-.471 1.583-.55 1.679-1.826 2.227-.734.316-2.24.747-3.346.958-2.2.421-8.046.469-10.668.087z" fill="#FFF"/></g></svg>
